!!!PDT:	1923
!!!LANG: Non-Tone
!!!LING_GROUP: Siouan
!!!REG: Dakotas
!!!COM: Anon.
!!!OTL: Fox Society Love Song
!!!ODT: <1918//
!!!MPN: Malitikikanaka [Sitting Rabbit]
!!!MLC: Fort Berthold Reservation, North Dakota, United States of America
!! Song was recorded during either the summer of 1912, 1915, or 1918.
!!!AGN: monody
!!!SOCIAL_FUNCTION: Mandan and Hidatsa Men's Fox Society
!!!AMT: irregular
!!!RWG: Transcribed pitches, durations, and meters are only approximate.
!! Drum not recorded.
**kern
*ICvox
*Imale
*clefF4
*k[b-e-a-]
*M3/4
*MM56
=1-
(12e-
12e-
12e-)
(12f
12e-
12e-)
(12d
12B-)
12r
=2
(12e-
12e-
12e-)
(12e-
12f
12f)
(12e-
12d
12d)
=3
(12f
12e-
12e-)
(12e-
12e-
12e-)
(12d
12B-)
12r
=4
([12B-
12B-]
12B-)
(12B-
12d
12d)
(12G
12E-)
12r
*M2/4
=5
(12E-
12E-
12E-)
(12E-
12G
12G)
=6
(12E-
12D
12D)
(12E-
12D
12D)
=7
2BB-
=8
8.BB-
16BB-
8.BB-
16BB-
=9
4BB-
4BB-
==
*-
!!!CNT: Mandan
!!!TXO: Mandan
!!!OCY: United States
!!!OCL: Frances Densmore
!!!YOR: Frances Densmore, "Mandan and Hidatsa Music",
!!!YOR: Bulletin 80, page 126, No. 57
!!!PPR: Smithsonian Institution, Bureau of American Ethnology
!!!PPR: Government Printing Office
!!!PDT: 1923
!!!PPP: Washington, DC, United States of America
!!!YEC: Electronic Copyright 2000 David Huron
!!!YER: August 2000
!!!YEN: United States of America
!!!ENC: David Huron
!!!RDT: August 17, 2000
!!!EEV: Release 1.0
!!!AIN: tom, vox
